static/files/dsdtree/Azure Container Service.svg

<?xml version="1.0" encoding="UTF-8"?>
<!-- Created with Inkscape (http://www.inkscape.org/) -->
<svg width="100" height="100" version="1.1" viewBox="0 0 26.458 26.458" xmlns="http://www.w3.org/2000/svg" xmlns:cc="http://creativecommons.org/ns#" xmlns:dc="http://purl.org/dc/elements/1.1/" xmlns:rdf="http://www.w3.org/1999/02/22-rdf-syntax-ns#" xmlns:v="http://schemas.microsoft.com/visio/2003/SVGExtensions/">
 <metadata>
  <rdf:RDF>
   <cc:Work rdf:about="">
    <dc:format>image/svg+xml</dc:format>
    <dc:type rdf:resource="http://purl.org/dc/dcmitype/StillImage"/>
    <dc:title/>
   </cc:Work>
  </rdf:RDF>
 </metadata>
 <g transform="translate(0 -270.54)">
  <g transform="matrix(.66478 0 0 .66478 1.7683 275.16)" fill="#2165b6" v:groupContext="foregroundPage" v:index="1" v:mID="0">
   <title>Page-1</title>
   <v:pageProperties v:drawingScale="1" v:drawingUnits="19" v:pageScale="1" v:shadowOffsetX="2.83465" v:shadowOffsetY="-2.83465" v:shadowType="1"/>
   <g transform="translate(.75 -.75)" fill="#2165b6" v:groupContext="shape" v:mID="1093">
    <title>Container Service.2696</title>
    <path class="st1" d="m27.97 9.61v8.12l5.01-1.92v-4.42zm-2.05 6.99-0.33-0.13v-5.6l0.33-0.07 0.33-0.13 0.4-0.13v6.26l-0.4-0.13zm-1.19-0.39-0.26-0.07v-4.94l0.79-0.2v5.41l-0.26-0.07zm-0.98-0.33-0.2-0.07v-4.42l0.59-0.19v4.81zm-0.4-4.95v5.34l3.76 1.46v-8.12zm-1.52-9.43v8.18l5.08-1.98v-4.42zm0 16.23v8.17l5.08-1.97v-4.42zm-1.98-9.24-0.33-0.13v-5.61l0.33-0.06 0.33-0.13 0.4-0.14v6.27l-0.4-0.13zm-1.18-0.39-0.27-0.07v-4.95l0.79-0.19v5.4l-0.26-0.06zm-0.99-0.27-0.2-0.06v-4.42l0.59-0.2v4.81zm-0.4-4.94v5.34l3.76 1.45v-8.11zm2.57 21.83-0.33-0.13v-5.61l0.33-0.07 0.33-0.13 0.4-0.13v6.27l-0.4-0.14zm-1.18-0.4-0.27-0.06v-4.95l0.79-0.2v5.41l-0.26-0.07zm-0.99-0.26-0.2-0.07v-4.42l0.59-0.19v4.81zm-0.4-4.95v5.34l3.76 1.45v-8.11zm-0.92-9.5v8.12l5.01-1.92v-4.42zm-2.05 6.99-0.33-0.13v-5.6l0.33-0.07 0.33-0.13 0.4-0.13v6.26l-0.4-0.13zm-1.18-0.39-0.27-0.07v-4.94l0.79-0.2v5.41l-0.26-0.07zm-0.99-0.33-0.2-0.07v-4.42l0.59-0.19v4.81zm-0.4-4.95v5.34l3.76 1.46v-8.12zm-1.71-9.43v8.18l5.07-1.98v-4.42zm0 16.23v8.17l5.07-1.97v-4.42zm-1.98-9.24-0.33-0.13v-5.61l0.33-0.06 0.33-0.13 0.39-0.14v6.27l-0.39-0.13zm-1.19-0.39-0.26-0.07v-4.95l0.79-0.19v5.4l-0.27-0.06zm-0.99-0.27-0.2-0.06v-4.42l0.6-0.2v4.81zm-0.4-4.94v5.34l3.76 1.45v-8.11zm2.58 21.83-0.33-0.13v-5.61l0.33-0.07 0.33-0.13 0.39-0.13v6.27l-0.39-0.14zm-1.19-0.4-0.26-0.06v-4.95l0.79-0.2v5.41l-0.27-0.07zm-0.99-0.26-0.2-0.07v-4.42l0.6-0.19v4.81zm-0.4-4.95v5.34l3.76 1.45v-8.11zm-0.85-9.5v8.12l5.01-1.92v-4.42zm-2.05 6.99-0.33-0.13v-5.6l0.33-0.07 0.33-0.13 0.4-0.13v6.26l-0.4-0.13zm-1.18-0.39-0.27-0.07v-4.94l0.79-0.2v5.41l-0.26-0.07zm-0.99-0.33-0.2-0.07v-4.42l0.59-0.19v4.81zm-0.4-4.95v5.34l3.76 1.46v-8.12z" fill="#2165b6"/>
   </g>
  </g>
 </g>
</svg>

<?xml version="1.0" encoding="UTF-8" standalone="no"?>
<!DOCTYPE svg PUBLIC "-//W3C//DTD SVG 1.1//EN" "http://www.w3.org/Graphics/SVG/1.1/DTD/svg11.dtd">
<!-- Generated by Microsoft Visio, SVG Export Container Service mono.svg Page-1 -->
<svg xmlns="http://www.w3.org/2000/svg" xmlns:xlink="http://www.w3.org/1999/xlink" xmlns:ev="http://www.w3.org/2001/xml-events"
		xmlns:v="http://schemas.microsoft.com/visio/2003/SVGExtensions/" width="0.478885in" height="0.359792in"
		viewBox="0 0 34.4797 25.905" xml:space="preserve" color-interpolation-filters="sRGB" class="st2">
	<v:documentProperties v:langID="1033" v:viewMarkup="false">
		<v:userDefs>
			<v:ud v:nameU="visTLShowProps" v:prompt="" v:val="VT0(0):26"/>
		</v:userDefs>
	</v:documentProperties>

	<style type="text/css">
	<![CDATA[
		.st1 {fill:#0078d7;stroke:none;stroke-linecap:butt;stroke-width:0.75}
		.st2 {fill:none;fill-rule:evenodd;font-size:12px;overflow:visible;stroke-linecap:square;stroke-miterlimit:3}
	]]>
	</style>

	<g v:mID="0" v:index="1" v:groupContext="foregroundPage">
		<title>Page-1</title>
		<v:pageProperties v:drawingScale="1" v:pageScale="1" v:drawingUnits="19" v:shadowOffsetX="2.83465"
				v:shadowOffsetY="-2.83465" v:shadowType="1"/>
		<g id="shape1093-1" v:mID="1093" v:groupContext="shape" transform="translate(0.75,-0.75)">
			<title>Container Service.2696</title>
			<path d="M27.97 9.61 L27.97 17.73 L32.98 15.81 L32.98 11.39 L27.97 9.61 ZM25.92 16.6 L25.59 16.47 L25.59 10.87 L25.92
						 10.8 L26.25 10.67 L26.65 10.54 L26.65 16.8 L26.25 16.67 L25.92 16.6 ZM24.73 16.21 L24.47 16.14 L24.47 11.2
						 L25.26 11 L25.26 16.41 L25 16.34 L24.73 16.21 ZM23.75 15.88 L23.55 15.81 L23.55 11.39 L24.14 11.2 L24.14
						 16.01 L23.75 15.88 ZM23.35 10.93 L23.35 16.27 L27.11 17.73 L27.11 9.61 L23.35 10.93 ZM21.83 1.5 L21.83 9.68
						 L26.91 7.7 L26.91 3.28 L21.83 1.5 ZM21.83 17.73 L21.83 25.9 L26.91 23.93 L26.91 19.51 L21.83 17.73 ZM19.85
						 8.49 L19.52 8.36 L19.52 2.75 L19.85 2.69 L20.18 2.56 L20.58 2.42 L20.58 8.69 L20.18 8.56 L19.85 8.49 ZM18.67
						 8.1 L18.4 8.03 L18.4 3.08 L19.19 2.89 L19.19 8.29 L18.93 8.23 L18.67 8.1 ZM17.68 7.83 L17.48 7.77 L17.48
						 3.35 L18.07 3.15 L18.07 7.96 L17.68 7.83 ZM17.28 2.89 L17.28 8.23 L21.04 9.68 L21.04 1.57 L17.28 2.89 ZM19.85
						 24.72 L19.52 24.59 L19.52 18.98 L19.85 18.91 L20.18 18.78 L20.58 18.65 L20.58 24.92 L20.18 24.78 L19.85
						 24.72 ZM18.67 24.32 L18.4 24.26 L18.4 19.31 L19.19 19.11 L19.19 24.52 L18.93 24.45 L18.67 24.32 ZM17.68
						 24.06 L17.48 23.99 L17.48 19.57 L18.07 19.38 L18.07 24.19 L17.68 24.06 ZM17.28 19.11 L17.28 24.45 L21.04
						 25.9 L21.04 17.79 L17.28 19.11 ZM16.36 9.61 L16.36 17.73 L21.37 15.81 L21.37 11.39 L16.36 9.61 ZM14.31 16.6
						 L13.98 16.47 L13.98 10.87 L14.31 10.8 L14.64 10.67 L15.04 10.54 L15.04 16.8 L14.64 16.67 L14.31 16.6 ZM13.13
						 16.21 L12.86 16.14 L12.86 11.2 L13.65 11 L13.65 16.41 L13.39 16.34 L13.13 16.21 ZM12.14 15.88 L11.94 15.81
						 L11.94 11.39 L12.53 11.2 L12.53 16.01 L12.14 15.88 ZM11.74 10.93 L11.74 16.27 L15.5 17.73 L15.5 9.61 L11.74
						 10.93 ZM10.03 1.5 L10.03 9.68 L15.1 7.7 L15.1 3.28 L10.03 1.5 ZM10.03 17.73 L10.03 25.9 L15.1 23.93 L15.1
						 19.51 L10.03 17.73 ZM8.05 8.49 L7.72 8.36 L7.72 2.75 L8.05 2.69 L8.38 2.56 L8.77 2.42 L8.77 8.69 L8.38 8.56
						 L8.05 8.49 ZM6.86 8.1 L6.6 8.03 L6.6 3.08 L7.39 2.89 L7.39 8.29 L7.12 8.23 L6.86 8.1 ZM5.87 7.83 L5.67 7.77
						 L5.67 3.35 L6.27 3.15 L6.27 7.96 L5.87 7.83 ZM5.47 2.89 L5.47 8.23 L9.23 9.68 L9.23 1.57 L5.47 2.89 ZM8.05
						 24.72 L7.72 24.59 L7.72 18.98 L8.05 18.91 L8.38 18.78 L8.77 18.65 L8.77 24.92 L8.38 24.78 L8.05 24.72 ZM6.86
						 24.32 L6.6 24.26 L6.6 19.31 L7.39 19.11 L7.39 24.52 L7.12 24.45 L6.86 24.32 ZM5.87 24.06 L5.67 23.99 L5.67
						 19.57 L6.27 19.38 L6.27 24.19 L5.87 24.06 ZM5.47 19.11 L5.47 24.45 L9.23 25.9 L9.23 17.79 L5.47 19.11 ZM4.62
						 9.61 L4.62 17.73 L9.63 15.81 L9.63 11.39 L4.62 9.61 ZM2.57 16.6 L2.24 16.47 L2.24 10.87 L2.57 10.8 L2.9
						 10.67 L3.3 10.54 L3.3 16.8 L2.9 16.67 L2.57 16.6 ZM1.39 16.21 L1.12 16.14 L1.12 11.2 L1.91 11 L1.91 16.41
						 L1.65 16.34 L1.39 16.21 ZM0.4 15.88 L0.2 15.81 L0.2 11.39 L0.79 11.2 L0.79 16.01 L0.4 15.88 ZM0 10.93 L0
						 16.27 L3.76 17.73 L3.76 9.61 L0 10.93 Z" class="st1"/>
		</g>
	</g>
</svg>
